brandFactory_export/2.Regular/Virus_2regular.svg

<?xml version="1.0" encoding="UTF-8"?>
<svg width="24px" height="24px" viewBox="0 0 24 24" version="1.1" xmlns="http://www.w3.org/2000/svg" xmlns:xlink="http://www.w3.org/1999/xlink">
    <title>2.Regular/Virus_2regular</title>
    <g id="Symbols" stroke="none" stroke-width="1" fill="none" fill-rule="evenodd">
        <g id="2.Regular/Virus_2regular" fill="#5CB615" fill-rule="nonzero">
            <path d="M5.89915966,20.3462185 C7.6907563,19.7647059 7.25378151,18.3428571 7.11596639,17.8789916 C6.7092437,16.5781513 5.98991597,16.410084 5.41512605,16.410084 C5.0789916,16.410084 4.8,16.4773109 4.69243697,16.507563 C4.61176471,16.5277311 4.51428571,16.5579832 4.42689076,16.5882353 C2.66554622,17.1529412 3.11260504,18.5815126 3.24705882,19.0487395 C3.65378151,20.3731092 4.35630252,20.5378151 4.93109244,20.5378151 C5.25714286,20.5378151 5.54621849,20.4672269 5.64369748,20.4302521 C5.73109244,20.4033613 5.82184874,20.3731092 5.89915966,20.3462185 L5.89915966,20.3462185 Z M9.37478992,16.3966387 C9.76806723,16.2789916 10.1848739,16.497479 10.302521,16.8907563 C10.4201681,17.2773109 10.205042,17.6907563 9.80840336,17.8084034 L8.68907563,18.1546218 C8.7697479,18.6588235 8.74957983,19.092437 8.65882353,19.4689076 L9.61008403,19.9731092 C9.97647059,20.1613445 10.1142857,20.6151261 9.91932773,20.9714286 C9.79159664,21.2268908 9.53277311,21.3680672 9.26386555,21.3680672 C9.14621849,21.3680672 9.02521008,21.3478992 8.91764706,21.287395 L7.94957983,20.7764706 C7.61344538,21.1327731 7.21680672,21.3781513 6.90084034,21.5462185 L7.24705882,22.6722689 C7.36470588,23.0554622 7.14957983,23.4722689 6.75294118,23.6 C6.68235294,23.6201681 6.60504202,23.6302521 6.53781513,23.6302521 C6.22184874,23.6302521 5.92268908,23.4218487 5.82521008,23.1058824 L5.4789916,21.9798319 C5.31092437,22 5.13277311,22.0201681 4.93445378,22.0201681 C4.69579832,22.0201681 4.44033613,21.989916 4.18151261,21.9327731 L3.65714286,22.9109244 C3.52941176,23.1563025 3.27058824,23.307563 3.00504202,23.307563 C2.88739496,23.307563 2.76638655,23.2773109 2.65882353,23.2168067 C2.30252101,23.0285714 2.16470588,22.5747899 2.34957983,22.2218487 L2.86386555,21.2436975 C2.57815126,20.9882353 2.31932773,20.6420168 2.10084034,20.1882353 C2.10084034,20.1882353 2.10084034,20.1983193 2.0907563,20.1983193 L0.964705882,20.5445378 C0.884033613,20.5747899 0.816806723,20.5815126 0.746218487,20.5815126 C0.430252101,20.5815126 0.134453782,20.3764706 0.0336134454,20.0605042 C-0.0840336134,19.6672269 0.134453782,19.2504202 0.527731092,19.1327731 L1.65714286,18.7865546 C1.66722689,18.7764706 1.66722689,18.7865546 1.67731092,18.7764706 C1.59663866,18.2823529 1.60672269,17.8588235 1.68739496,17.4823529 L0.729411765,16.9680672 C0.36302521,16.7798319 0.225210084,16.3260504 0.420168067,15.9697479 C0.608403361,15.6033613 1.06218487,15.4655462 1.42184874,15.6537815 L2.37983193,16.1680672 C2.71596639,15.8016807 3.11260504,15.5563025 3.43865546,15.394958 L3.09243697,14.2689076 C2.97478992,13.8823529 3.19327731,13.4689076 3.58655462,13.3512605 C3.97310924,13.2336134 4.38991597,13.4521008 4.51764706,13.8352941 L4.86386555,14.9714286 C5.03193277,14.9512605 5.21008403,14.9310924 5.41848739,14.9310924 C5.64369748,14.9310924 5.90252101,14.9613445 6.16134454,15.0184874 L6.67563025,14.0403361 C6.87394958,13.6739496 7.3210084,13.5361345 7.68403361,13.7243697 C8.04033613,13.9226891 8.17815126,14.3663866 7.98991597,14.7327731 L7.48571429,15.6907563 C7.77142857,15.9462185 8.04033613,16.292437 8.25546218,16.7495798 L9.37478992,16.3966387 L9.37478992,16.3966387 Z M17.8823529,16.8571429 C18.712605,16.8571429 19.1798319,16.3932773 19.5932773,15.9798319 C20.5915966,14.9848739 21.9596639,13.6201681 15.9932773,7.65378151 C13.492437,5.15630252 11.610084,3.74453782 10.2352941,3.3210084 C9.9394958,3.2302521 9.67058824,3.18319328 9.41176471,3.18319328 C8.78991597,3.18319328 8.24537815,3.45882353 7.65042017,4.06386555 C6.8,4.90420168 6.59159664,5.62352941 6.90756303,6.63865546 C7.33445378,8.01344538 8.75630252,9.88907563 11.2504202,12.3865546 C14.7764706,15.892437 16.6957983,16.8571429 17.8823529,16.8571429 Z M23.0957983,14.4302521 C23.492437,14.5579832 23.7109244,14.9714286 23.589916,15.3579832 C23.492437,15.6739496 23.1932773,15.8823529 22.8773109,15.8823529 C22.8067227,15.8823529 22.7294118,15.8722689 22.6588235,15.8453782 L21.6806723,15.5394958 C21.5630252,15.8554622 21.3747899,16.1613445 21.1462185,16.4571429 L21.8991597,17.210084 C22.1848739,17.4957983 22.1848739,17.9596639 21.8991597,18.2554622 C21.7512605,18.3932773 21.5630252,18.4739496 21.3747899,18.4739496 C21.1865546,18.4739496 20.9983193,18.3966387 20.8504202,18.2554622 L20.107563,17.5159664 C19.8487395,17.7243697 19.5428571,17.9193277 19.1966387,18.0605042 L19.492437,19.0184874 C19.610084,19.405042 19.394958,19.8285714 19.0084034,19.9462185 C18.9310924,19.9663866 18.8605042,19.9764706 18.7798319,19.9764706 C18.4638655,19.9764706 18.1747899,19.7781513 18.0773109,19.4655462 L17.7210084,18.3495798 C17.3747899,18.3394958 16.9882353,18.2789916 16.5747899,18.1445378 C16.4369748,18.1042017 16.2991597,18.0436975 16.1478992,17.9865546 L16.0605042,18.7260504 C16.0201681,19.0991597 15.6941176,19.3680672 15.3277311,19.3680672 L15.2403361,19.3680672 C14.8336134,19.3176471 14.5378151,18.9445378 14.5983193,18.5378151 L14.7563025,17.2739496 C14.3294118,17.0084034 13.8857143,16.692437 13.4117647,16.3159664 L12.907563,17.3142857 C12.7798319,17.5731092 12.5109244,17.7176471 12.2453782,17.7176471 C12.1344538,17.7176471 12.0168067,17.687395 11.9092437,17.6369748 C11.5428571,17.4487395 11.394958,17.005042 11.5831933,16.6420168 L12.2352941,15.3478992 C11.7613445,14.9344538 11.2470588,14.4605042 10.7226891,13.9462185 L9.74453782,14.9243697 C9.59663866,15.0621849 9.40840336,15.1428571 9.22016807,15.1428571 C9.03193277,15.1428571 8.83361345,15.0621849 8.69579832,14.9243697 C8.41008403,14.6285714 8.41008403,14.1647059 8.69579832,13.8789916 L9.67394958,12.9008403 C9.14957983,12.3663866 8.68571429,11.8655462 8.25882353,11.3815126 L6.96134454,12.0336134 C6.86386555,12.0907563 6.74285714,12.1109244 6.63529412,12.1109244 C6.35966387,12.1109244 6.10084034,11.9630252 5.97310924,11.707563 C5.78487395,11.3411765 5.93277311,10.897479 6.29915966,10.7092437 L7.28739496,10.205042 C7.19663866,10.087395 7.1092437,9.97983193 7.02184874,9.85882353 C6.76302521,9.51260504 6.54789916,9.18991597 6.34957983,8.87058824 L5.07226891,9.02857143 L4.97478992,9.02857143 C4.60840336,9.02857143 4.29243697,8.74957983 4.24201681,8.37647059 C4.19159664,7.97310924 4.48067227,7.60672269 4.88403361,7.55630252 L5.63697479,7.45882353 C5.57983193,7.33109244 5.5394958,7.20336134 5.49915966,7.08235294 C5.36134454,6.65882353 5.30084034,6.26218487 5.2907563,5.90588235 L4.14453782,5.5394958 C3.74789916,5.42184874 3.5394958,5.00504202 3.6605042,4.61176471 C3.77815126,4.22521008 4.19495798,4 4.59159664,4.12773109 L5.58991597,4.43361345 C5.72773109,4.09747899 5.92605042,3.80168067 6.12436975,3.55630252 L5.3512605,2.77647059 C5.06554622,2.4907563 5.06554622,2.01680672 5.3512605,1.73109244 C5.63697479,1.44537815 6.11428571,1.44537815 6.4,1.73109244 L7.18319328,2.51092437 C7.43865546,2.31260504 7.72773109,2.12436975 8.06386555,1.98655462 L7.74789916,0.968067227 C7.62016807,0.581512605 7.83529412,0.168067227 8.23193277,0.0403361345 C8.61848739,-0.0806722689 9.04537815,0.137815126 9.16302521,0.524369748 L9.52941176,1.71092437 C9.88571429,1.7210084 10.2621849,1.78151261 10.6756303,1.9092437 C10.8033613,1.94957983 10.9344538,1.99663866 11.0722689,2.04705882 L11.1697479,1.26722689 C11.2302521,0.863865546 11.5966387,0.574789916 12,0.625210084 C12.4067227,0.682352941 12.692437,1.0487395 12.6420168,1.45546218 L12.4739496,2.77647059 C12.9008403,3.03193277 13.3445378,3.3512605 13.8084034,3.71428571 L14.3327731,2.6789916 C14.5109244,2.31260504 14.9546218,2.16470588 15.3310924,2.35294118 C15.697479,2.54117647 15.8352941,2.98487395 15.6571429,3.3512605 L14.9848739,4.68235294 C15.4588235,5.09579832 15.9663866,5.56302521 16.487395,6.08403361 L17.4957983,5.06890756 C17.7915966,4.78319328 18.2588235,4.78319328 18.5445378,5.06890756 C18.8403361,5.36470588 18.8403361,5.82857143 18.5445378,6.11428571 L17.5361345,7.12268908 C18.0504202,7.64369748 18.5142857,8.14789916 18.9411765,8.62184874 L20.2756303,7.95294118 C20.6420168,7.77478992 21.0857143,7.92268908 21.2739496,8.28907563 C21.4521008,8.65210084 21.3042017,9.09915966 20.9378151,9.27731092 L19.9092437,9.78823529 C20.2756303,10.2621849 20.6016807,10.7058824 20.8605042,11.1294118 L22.1747899,10.9613445 C22.5815126,10.9210084 22.9478992,11.1966387 22.994958,11.6033613 C23.0554622,12.0067227 22.7563025,12.3831933 22.3529412,12.4336134 L21.589916,12.5310924 C21.8084034,13.0857143 21.9260504,13.5966387 21.9462185,14.0806723 L23.0957983,14.4302521 Z" id="Virus_2regular"></path>
        </g>
    </g>
</svg>

<svg width="24" height="24" viewBox="0 0 24 24" xmlns="http://www.w3.org/2000/svg"><path d="M5.9 20.346c1.79-.581 1.354-2.003 1.216-2.467-.407-1.3-1.126-1.469-1.7-1.469-.337 0-.616.067-.724.098-.08.02-.178.05-.265.08-1.761.565-1.314 1.994-1.18 2.46.407 1.325 1.11 1.49 1.684 1.49.326 0 .615-.07.713-.108.087-.027.178-.057.255-.084zm3.475-3.95c.393-.117.81.101.928.495a.733.733 0 01-.495.917l-1.119.347c.08.504.06.937-.03 1.314l.951.504a.731.731 0 01.31.998.725.725 0 01-.656.397.7.7 0 01-.346-.08l-.968-.512a4.04 4.04 0 01-1.05.77l.347 1.126a.75.75 0 01-.494.928.751.751 0 01-.928-.494L5.48 21.98c-.168.02-.346.04-.545.04-.238 0-.494-.03-.752-.087l-.525.978a.743.743 0 01-.652.397.746.746 0 01-.655-1.086l.514-.978c-.286-.256-.545-.602-.763-1.056 0 0 0 .01-.01.01l-1.126.347a.585.585 0 01-.219.037.751.751 0 01-.712-.521.743.743 0 01.494-.928l1.13-.346c.01-.01.01 0 .02-.01-.081-.495-.071-.918.01-1.295l-.959-.514a.731.731 0 01-.309-.998.742.742 0 011.002-.316l.958.514a3.6 3.6 0 011.059-.773l-.347-1.126c-.117-.387.101-.8.495-.918.386-.117.803.101.93.484l.347 1.136c.168-.02.346-.04.554-.04.226 0 .485.03.743.087l.515-.978a.752.752 0 011.008-.316.756.756 0 01.306 1.009l-.504.958c.285.255.554.601.77 1.059l1.119-.353zm8.507.461c.83 0 1.298-.464 1.711-.877.999-.995 2.367-2.36-3.6-8.326-2.5-2.498-4.383-3.91-5.758-4.333a2.796 2.796 0 00-.823-.138c-.622 0-1.167.276-1.762.88-.85.841-1.058 1.56-.742 2.576.426 1.374 1.848 3.25 4.342 5.748 3.526 3.505 5.446 4.47 6.632 4.47zm5.214-2.427a.745.745 0 01.494.928.751.751 0 01-.713.524.622.622 0 01-.218-.037l-.978-.306a3.563 3.563 0 01-.535.918l.753.753a.745.745 0 010 1.045.78.78 0 01-.524.219.765.765 0 01-.525-.219l-.742-.739a3.677 3.677 0 01-.911.545l.295.957a.746.746 0 01-.484.928.871.871 0 01-.228.03.731.731 0 01-.703-.51l-.356-1.116a4.095 4.095 0 01-1.146-.205c-.138-.04-.276-.101-.427-.158l-.087.74a.731.731 0 01-.733.641h-.088a.735.735 0 01-.642-.83l.158-1.264c-.427-.266-.87-.582-1.344-.958l-.504.998a.74.74 0 01-.999.323.737.737 0 01-.326-.995l.652-1.294a35.666 35.666 0 01-1.512-1.402l-.978.978a.78.78 0 01-.525.219.761.761 0 01-.524-.219.745.745 0 010-1.045l.978-.978a38.826 38.826 0 01-1.415-1.52l-1.298.653a.657.657 0 01-.326.077.74.74 0 01-.336-1.402l.988-.504c-.09-.118-.178-.225-.265-.346a13.633 13.633 0 01-.672-.988l-1.278.158h-.097a.748.748 0 01-.733-.653.737.737 0 01.642-.82l.753-.097c-.057-.128-.098-.256-.138-.377a4.181 4.181 0 01-.208-1.176l-1.146-.367a.732.732 0 01-.484-.927.737.737 0 01.93-.484l.999.306c.138-.337.336-.632.534-.878l-.773-.78a.745.745 0 010-1.045.749.749 0 011.049 0l.783.78a3.77 3.77 0 01.88-.524L7.749.968A.734.734 0 018.232.04a.747.747 0 01.931.484l.366 1.187c.357.01.733.07 1.147.198.127.04.258.088.396.138l.098-.78A.752.752 0 0112 .625a.746.746 0 01.642.83l-.168 1.321c.427.256.87.575 1.334.938l.525-1.035a.735.735 0 01.998-.326.75.75 0 01.326.998l-.672 1.331c.474.414.981.881 1.502 1.402l1.009-1.015a.749.749 0 011.049 0 .727.727 0 010 1.045l-1.009 1.009c.514.52.978 1.025 1.405 1.499l1.335-.67a.753.753 0 01.998.337.74.74 0 01-.336.988l-1.029.511c.367.474.693.918.952 1.341l1.314-.168a.738.738 0 01.82.642.74.74 0 01-.642.83l-.763.098c.218.555.336 1.066.356 1.55l1.15.35z" fill="#5CB615" fill-rule="nonzero"/></svg>
